X:1
T:Holy Communion, LMD
T:Holy Communion, LMD
T:Johann Michael Haydn (1737-1806)
T:Public Domain Courtesy of the Cyber Hymnal™
C:Johann Michael Haydn (1737-1806)
Z:Public Domain
Z:Courtesy of the Cyber Hymnal™
%%score ( 1 2 ) ( 3 4 )
L:1/8
Q:1/4=115
M:3/4
K:D
V:1 treble 
V:2 treble 
V:3 bass 
V:4 bass 
V:1
 D2 [DF]2 [DG]2 | [DA]4 (Bc) | (d2 c2) [DB]2 | (B2 A4) | [EA]2 E2 [EG]2 | [DF]4 [DA]2 | %6
 [DB]4 [A,C]2 | [A,D]6 | D2 [DF]2 [DG]2 | [DA]4 (Bc) | (d2 c2) [DB]2 | (B2 A4) | [EA]2 E2 [EG]2 | %13
 [DF]4 [DA]2 | [DB]4 [A,C]2 | [A,D]6 | [EA]2 E2 [CE]2 | [CE]4 [DF]2 | ([FA]2 [EG]2) [DF]2 | %19
 ([DF]2 [CE]4) | [EA]2 [CE]2 [CE]2 | [CE]4 [DF]2 | (A2 G2) [DF]2 | [CE]6 | D2 [DF]2 [DG]2 | %25
 [DA]4 (Bc) | (d2 c2) [DB]2 | (B2 A4) | [EA]2 [CE]2 [EG]2 | [DF]4 [DA]2 | [DB]4 [CE]2 | [A,D]6 |] %32
V:2
 D2 x4 | x4 D2 | D4 x2 | D6 | x2 E2 x2 | x6 | x6 | x6 | D2 x4 | x4 D2 | D4 x2 | D6 | x2 E2 x2 | %13
 x6 | x6 | x6 | x2 E2 x2 | x6 | x6 | x6 | x6 | x6 | E4 x2 | x6 | D2 x4 | x4 D2 | D4 x2 | D6 | x6 | %29
 x6 | x6 | x6 |] %32
V:3
 [D,F,]2 [D,A,]2 [D,E,]2 | [D,F,]4 (G,A,) | B,2 A,2 [D,G,]2 | (G,2 F,4) | [A,C]2 [A,C]2 [C,A,]2 | %5
 [D,A,]4 [D,F,]2 | [G,,G,]4 [A,,G,]2 | [D,F,]6 | [D,F,]2 [D,A,]2 [D,E,]2 | [D,F,]4 (G,A,) | %10
 (B,2 A,2) [D,G,]2 | (G,2 F,4) | [A,C]2 [A,C]2 [C,A,]2 | [D,A,]4 [D,F,]2 | [G,,G,]4 [A,,G,]2 | %15
 [D,F,]6 | [C,A,]2 [C,A,]2 A,2 | A,4 [F,A,]2 | [C,A,]4 [D,A,]2 | A,6 | [C,A,]2 [A,,A,]2 [A,,A,]2 | %21
 A,4 [F,A,]2 | [C,A,]4 [D,A,]2 | A,6 | [D,F,]2 [D,A,]2 [D,E,]2 | [D,F,]4 G,A, | (B,2 A,2) [D,G,]2 | %27
 (G,2 F,4) | [C,A,]2 [A,,A,]2 [C,A,]2 | [D,A,]4 [D,F,]2 | [G,,G,]4 [A,,G,]2 | [D,F,]6 |] %32
V:4
 x6 | x4 D,2 | D,4 x2 | D,6 | x6 | x6 | x6 | x6 | x6 | x4 D,2 | D,4 x2 | D,6 | x6 | x6 | x6 | x6 | %16
 x4 A,2 | (A,2 G,2) x2 | x6 | A,6 | x6 | (A,2 G,2) x2 | x6 | A,6 | x6 | x4 D,2 | D,4 x2 | D,6 | %28
 x6 | x6 | x6 | x6 |] %32

